X: 7026
T: Child Of My Heart
R: jig
M: 6/8
K: Aminor
|:e2d c2A|GEG c2d|e2d c2A|GEA GED|
e2d c2A|GEE c2d|edc dcA|GEA GED:|
|:ABA AGE|c3 DED|ABA AGE|GED DED|
ABA AGE|c2B c2d|edc dcA|GEA GED:|

